src/lib/assets/image_icon_white.svg

<svg xmlns="http://www.w3.org/2000/svg" width="512" height="448" fill="none"><path fill="#fff" d="M152.009 88c-26.51 0-48 21.49-48 48s21.49 48 48 48 48-21.49 48-48-21.5-48-48-48Zm295.1-88h-384C28.66 0 0 28.65 0 64v320c0 35.35 28.65 64 63.1 64h384c35.35 0 64-28.65 64-64V64c.009-35.35-27.791-64-63.991-64Zm16 377.3-136.8-185.9c-2.5-4.6-8.2-7.4-14.3-7.4-6.113 0-11.82 2.768-15.21 7.379l-106.6 144.1-37.09-46.1c-3.441-4.279-8.934-6.809-14.77-6.809-5.842 0-11.33 2.529-14.78 6.809l-75.52 93.81c0-.029 0 .029 0 0L48 64c0-8.822 7.178-16 16-16h384c8.822 0 16 7.178 16 16v313.3h-.89Z"/></svg>

<svg width="512" height="448" viewBox="0 0 512 448" fill="none" xmlns="http://www.w3.org/2000/svg">
<path d="M152.009 88C125.499 88 104.009 109.49 104.009 136C104.009 162.51 125.499 184 152.009 184C178.519 184 200.009 162.51 200.009 136C200.009 109.49 178.509 88 152.009 88ZM447.109 0H63.1091C28.6591 0 0 28.65 0 64V384C0 419.35 28.65 448 63.1 448H447.1C482.45 448 511.1 419.35 511.1 384V64C511.109 28.65 483.309 0 447.109 0ZM463.109 377.3L326.309 191.4C323.809 186.8 318.109 184 312.009 184C305.896 184 300.189 186.768 296.799 191.379L190.199 335.479L153.109 289.379C149.668 285.1 144.175 282.57 138.339 282.57C132.497 282.57 127.009 285.099 123.559 289.379L48.0391 383.189C48.0391 383.16 48.0391 383.218 48.0391 383.189L47.9991 64C47.9991 55.178 55.1771 48 63.9991 48H447.999C456.821 48 463.999 55.178 463.999 64V377.3H463.109Z" fill="white"/>
</svg>
